X:1
T:The Home Coming of Our King
T:The Home Coming of Our King
T:George Crawford Hugg
T:George Crawford Hugg, 1899
T:Public Domain Courtesy of the Cyber Hymnal™
T:Public Domain Courtesy of the Cyber Hymnal™
C:George Crawford Hugg
Z:Public Domain
Z:Courtesy of the Cyber Hymnal™
%%score ( 1 2 ) ( 3 4 )
L:1/8
Q:1/4=100
M:4/4
K:Eb
V:1 treble 
V:2 treble 
V:3 bass 
V:4 bass 
V:1
 B,[B,E] | G4 [CF][CE][A,C][B,=D] | E6 B2 | [Ge]3 [GB] [Ac][GB]E[EG] | [DF]6 (FG) | %5
w: 1.~Hap- py|home com- ing of our|king; We’ll|meet our loved ones gone be-|fore, And *|
w: 2.~Bless- èd|home com- ing of our|king; We’ll|join the ev- er- last- ing|psalm Of *|
w: 3.~Glor- ious|home com- ing of our|king; With|Je- sus we will live al-|way Where *|
 [DA]3 [DA] [Ad][Ad][DF][Dc] | [EB]6 (EF) | [EG]3 [_DG] [CF][CE][A,C][B,=D] | [B,E]6 || %9
w: sweet the greet- ing they will|bring To *|us up- on the gold- en|shore.|
w: joy that an- gel voic- es|sing, “The *|song of Mo- ses and the|Lamb.”|
w: songs of love and glad- ness|ring In *|tune thro’ Heav’n’s e- ter- nal|day.|
"^Refrain" E[EF] | [EG]4 [EF]EE[EG] | [GB]4 [Ac][GB][EG][GB] | [Ge]4 [Ec][EB][EG]E | %13
w: ||||
w: Hap- py|home com- ing, Bless- èd|home com- ing, Glor- ious|home com- ing of our|
w: ||||
"^riten." [CF]2 [A,C]2 [B,D]2"^a tempo" E[EF] | [EG]4 [EF]EE[EG] | [GB]4 [Ac][GB][EG][GB] | %16
w: |||
w: Sav- ior, King! Hap- py|home com- ing, Bless- èd|home com- ing, Glor- ious|
w: |||
 [Ge]4 [Ec][EB][EG]E | [DF]2 [DG]2 !fermata!E2 |] %18
w: ||
w: home com- ing of our|Sav- ior, King!|
w: ||
V:2
 B, x | (E2 _D2) x4 | (B,2 C2 B,2) (BA) | x6 E x | x6 D2 | x8 | x6 E2 | x8 | x6 || E x | x5 EE x | %11
 x8 | x7 E | x6 E x | x5 EE x | x8 | x7 E | x4 E2 |] %18
V:3
 [E,G,][E,G,] | [E,B,]4 [A,,A,][A,,A,][A,,F,][B,,A,] | (G,2 A,2 G,2) B,2 | %3
 [E,B,]3 [E,E] [E,E][E,E][G,B,][E,B,] | [B,,B,]6 (A,G,) | %5
 [B,,F,]3 [B,,F,] [B,,B,][B,,B,][B,,B,][B,,B,] | [E,G,]6 (G,A,) | %7
 [E,B,]3 [E,B,] [A,,A,][A,,A,][A,,F,][A,,A,] | [E,G,]6 || [E,G,][E,A,] | %10
 [E,B,]4 [E,A,][E,G,][E,G,][E,B,] | [E,E]4 [E,E][E,E][E,B,][E,B,] | [E,B,]4 A,[G,B,][E,B,][E,G,] | %13
 [A,,A,]2 [A,,F,]2 [A,,A,]2 [E,G,][E,A,] | [E,B,]4 [E,A,][E,G,][E,G,][E,B,] | %15
 [E,E]4 [E,E][E,E][E,B,][E,B,] | [E,B,]4 A,[G,B,][E,B,][C,=A,] | %17
 [B,,A,]2 [B,,B,]2 !fermata![E,G,]2 |] %18
V:4
 x2 | x8 | E,6 (G,F,) | x8 | x6 B,,2 | x8 | x6 E,2 | x8 | x6 || x2 | x8 | x8 | x4 A, x3 | x8 | x8 | %15
 x8 | x4 =A, x3 | x6 |] %18

